icon-themes/breeze_svg/cmd/lc_connectorcircleend.svg

<svg viewBox="0 0 24 24" xmlns="http://www.w3.org/2000/svg"><path d="m7 6v2h3 1v2 8h1 1 1.1875c.415511 1.158349 1.511182 2 2.8125 2 1.65685 0 3-1.34314 3-3s-1.34315-3-3-3c-1.301318 0-2.396989.841651-2.8125 2h-1.1875v-10h-1-2zm10 10c.55228 0 1 .44772 1 1s-.44772 1-1 1-1-.44772-1-1 .44772-1 1-1z" fill="#4d4d4d"/></svg>

<svg xmlns="http://www.w3.org/2000/svg" viewBox="0 0 24 24">
 <path 
     style="fill:#4d4d4d" 
     d="M 7 6 L 7 8 L 10 8 L 11 8 L 11 10 L 11 18 L 12 18 L 13 18 L 14.1875 18 C 14.603011 19.158349 15.698682 20 17 20 C 18.65685 20 20 18.65686 20 17 C 20 15.34314 18.65685 14 17 14 C 15.698682 14 14.603011 14.841651 14.1875 16 L 13 16 L 13 6 L 12 6 L 10 6 L 7 6 z M 17 16 C 17.55228 16 18 16.44772 18 17 C 18 17.55228 17.55228 18 17 18 C 16.44772 18 16 17.55228 16 17 C 16 16.44772 16.44772 16 17 16 z "
     />
 </svg>
